layouts/partials/svg/functions.svg

<svg xmlns="http://www.w3.org/2000/svg" fill-rule="evenodd" stroke-linejoin="round" stroke-miterlimit="1.414" clip-rule="evenodd" viewBox="0 0 512 512"><path fill="#0083c0" fill-rule="nonzero" d="M255.939 511.938C114.811 511.938 0 397.127 0 255.999S114.811.061 255.939.061 511.878 114.872 511.878 256 397.066 511.938 255.939 511.938z"/><path fill="#fff" fill-rule="nonzero" d="M135.62 383.997h-13.724c-8.957 0-16.215-7.473-16.215-16.695 0-9.222 7.258-16.695 16.215-16.695h13.723c22.581 0 42.037-15.788 47.305-38.396l40.992-175.866c8.783-37.679 41.203-63.993 78.838-63.993h13.724c8.956 0 16.214 7.473 16.214 16.695 0 9.222-7.258 16.695-16.214 16.695h-13.724c-22.581 0-42.037 15.788-47.305 38.396l-40.992 175.866c-8.784 37.678-41.202 63.993-78.838 63.993z"/><path fill="#fff" fill-rule="nonzero" d="M171.29 233.466h-15.34c-5.949 0-9.727-7.263-9.727-16.224 0-8.962 3.778-16.224 9.726-16.224h139.976c5.948 0 10.767 7.262 10.767 16.224 0 8.961-4.82 16.224-10.767 16.224H171.29zm174.364 55.251c-6.521-6.521-17.087-6.521-23.608 0l-21.587 21.587-21.586-21.587c-6.521-6.521-17.087-6.521-23.608 0-6.521 6.516-6.521 17.091 0 23.608l21.587 21.587-21.586 21.586c-6.521 6.516-6.521 17.092 0 23.608a16.642 16.642 0 0 0 11.804 4.892 16.64 16.64 0 0 0 11.804-4.892l21.587-21.587 21.587 21.587a16.642 16.642 0 0 0 11.804 4.892 16.64 16.64 0 0 0 11.804-4.892c6.521-6.516 6.521-17.092 0-23.608l-21.587-21.587 21.587-21.587c6.52-6.516 6.52-17.092-.002-23.607z"/></svg>

<?xml version="1.0" encoding="UTF-8" standalone="no"?>
<!DOCTYPE svg PUBLIC "-//W3C//DTD SVG 1.1//EN" "http://www.w3.org/Graphics/SVG/1.1/DTD/svg11.dtd">
<svg width="100%" height="100%" viewBox="0 0 512 512" version="1.1" xmlns="http://www.w3.org/2000/svg" xmlns:xlink="http://www.w3.org/1999/xlink" xml:space="preserve" style="fill-rule:evenodd;clip-rule:evenodd;stroke-linejoin:round;stroke-miterlimit:1.41421;">
    <path d="M255.939,511.938C114.811,511.938 0,397.127 0,255.999C0,114.871 114.811,0.061 255.939,0.061C397.067,0.061 511.878,114.872 511.878,256C511.878,397.128 397.066,511.938 255.939,511.938Z" style="fill:rgb(0,131,192);fill-rule:nonzero;"/>
    <g transform="matrix(0.971234,0,0,1,3.04003,0)">
        <path d="M136.506,383.997L122.376,383.997C113.154,383.997 105.681,376.524 105.681,367.302C105.681,358.08 113.154,350.607 122.376,350.607L136.506,350.607C159.756,350.607 179.788,334.819 185.212,312.211L227.418,136.345C236.461,98.666 269.841,72.352 308.591,72.352L322.721,72.352C331.943,72.352 339.416,79.825 339.416,89.047C339.416,98.269 331.943,105.742 322.721,105.742L308.591,105.742C285.341,105.742 265.309,121.53 259.885,144.138L217.679,320.004C208.635,357.682 175.256,383.997 136.506,383.997Z" style="fill:white;fill-rule:nonzero;"/>
    </g>
    <g transform="matrix(0.644932,0,0,0.971786,87.792,130.707)">
        <path d="M129.467,105.742L105.681,105.742C96.459,105.742 90.6,98.269 90.6,89.047C90.6,79.825 96.459,72.352 105.681,72.352L322.721,72.352C331.943,72.352 339.416,79.825 339.416,89.047C339.416,98.269 331.943,105.742 322.721,105.742L308.591,105.742C285.341,105.742 209.181,105.742 209.181,105.742C173.681,105.742 168.217,105.742 129.467,105.742Z" style="fill:white;fill-rule:nonzero;"/>
    </g>
    <g>
        <path d="M345.654,288.717C339.133,282.196 328.567,282.196 322.046,288.717L300.459,310.304L278.873,288.717C272.352,282.196 261.786,282.196 255.265,288.717C248.744,295.233 248.744,305.808 255.265,312.325L276.852,333.912L255.266,355.498C248.745,362.014 248.745,372.59 255.266,379.106C258.527,382.367 262.799,383.998 267.07,383.998C271.341,383.998 275.614,382.367 278.874,379.106L300.461,357.519L322.048,379.106C325.309,382.367 329.581,383.998 333.852,383.998C338.123,383.998 342.396,382.367 345.656,379.106C352.177,372.59 352.177,362.014 345.656,355.498L324.069,333.911L345.656,312.324C352.176,305.808 352.176,295.232 345.654,288.717Z" style="fill:white;fill-rule:nonzero;"/>
    </g>
</svg>
